X:10
M:4/4
L:1/4
K:C
"^Refrain" C | G G A B | c2 c e | d c A B | c3 C | G G A B | c2 c e | d c A B | c3 |] "^Verse" c | e e d c | B2 B B | c B A A | G3 G | E G A G | (G F) E !sintro!G | F E D D | "^To Refrain" C3 !eintro!||
